cinema_teal_orange.cube
TITLE "NkTest Cinema Teal-Orange"
LUT_3D_SIZE 8
0.00000 0.00000 0.00000
0.10383 0.00000 0.00000
0.24630 0.00000 0.00000
0.39141 0.00000 0.00000
0.53915 0.00000 0.00000
0.68953 0.00000 0.00000
0.84254 0.00000 0.00000
0.99819 0.00000 0.00000
0.00000 0.12500 0.00000
0.10575 0.12500 0.00000
0.25081 0.12500 0.00000
0.39850 0.12500 0.00000
0.54883 0.12500 0.00000
0.70180 0.12500 0.00000
0.85740 0.12500 0.00000
1.00000 0.12500 0.00000
0.00000 0.27500 0.00000
0.10767 0.27500 0.00000
0.25531 0.27500 0.00000
0.40559 0.27500 0.00000
0.55851 0.27500 0.00000
0.71406 0.27500 0.00000
0.87225 0.27500 0.00000
1.00000 0.27500 0.00000
0.00000 0.42500 0.00000
0.10958 0.42500 0.00000
0.25982 0.42500 0.00000
0.41268 0.42500 0.00000
0.56819 0.42500 0.00000
0.72633 0.42500 0.00000
0.88711 0.42500 0.00000
1.00000 0.42500 0.00000
0.00000 0.57500 0.00000
0.11150 0.57500 0.00000
0.26432 0.57500 0.00000
0.41978 0.57500 0.00000
0.57787 0.57500 0.00000
0.73860 0.57500 0.00000
0.90196 0.57500 0.00000
1.00000 0.57500 0.00000
0.00000 0.72500 0.00000
0.11342 0.72500 0.00000
0.26882 0.72500 0.00000
0.42687 0.72500 0.00000
0.58755 0.72500 0.00000
0.75086 0.72500 0.00000
0.91682 0.72500 0.00000
1.00000 0.72500 0.00000
0.00000 0.87500 0.00000
0.11533 0.87500 0.00000
0.27333 0.87500 0.00000
0.43396 0.87500 0.00000
0.59723 0.87500 0.00000
0.76313 0.87500 0.00000
0.93167 0.87500 0.00000
1.00000 0.87500 0.00000
0.00000 1.00000 0.00000
0.11725 1.00000 0.00000
0.27783 1.00000 0.00000
0.44105 1.00000 0.00000
0.60691 1.00000 0.00000
0.77540 1.00000 0.00000
0.94652 1.00000 0.00000
1.00000 1.00000 0.00000
0.00000 0.00000 0.12534
0.10421 0.00000 0.12437
0.24718 0.00000 0.12339
0.39279 0.00000 0.12241
0.54103 0.00000 0.12144
0.69191 0.00000 0.12046
0.84543 0.00000 0.11948
1.00000 0.00000 0.11851
0.00000 0.12500 0.12343
0.10612 0.12500 0.12245
0.25168 0.12500 0.12147
0.39988 0.12500 0.12050
0.55071 0.12500 0.11952
0.70418 0.12500 0.11854
0.86028 0.12500 0.11757
1.00000 0.12500 0.11659
0.00000 0.27500 0.12151
0.10804 0.27500 0.12053
0.25619 0.27500 0.11956
0.40697 0.27500 0.11858
0.56039 0.27500 0.11760
0.71644 0.27500 0.11663
0.87514 0.27500 0.11565
1.00000 0.27500 0.11467
0.00000 0.42500 0.11959
0.10996 0.42500 0.11862
0.26069 0.42500 0.11764
0.41406 0.42500 0.11666
0.57007 0.42500 0.11569
0.72871 0.42500 0.11471
0.88999 0.42500 0.11373
1.00000 0.42500 0.11276
0.00000 0.57500 0.11768
0.11187 0.57500 0.11670
0.26520 0.57500 0.11572
0.42115 0.57500 0.11475
0.57975 0.57500 0.11377
0.74098 0.57500 0.11279
0.90485 0.57500 0.11182
1.00000 0.57500 0.11084
0.00000 0.72500 0.11576
0.11379 0.72500 0.11478
0.26970 0.72500 0.11381
0.42825 0.72500 0.11283
0.58943 0.72500 0.11185
0.75325 0.72500 0.11088
0.91970 0.72500 0.10990
1.00000 0.72500 0.10892
0.00000 0.87500 0.11384
0.11571 0.87500 0.11287
0.27420 0.87500 0.11189
0.43534 0.87500 0.11091
0.59911 0.87500 0.10994
0.76551 0.87500 0.10896
0.93456 0.87500 0.10798
1.00000 0.87500 0.10701
0.00000 1.00000 0.11192
0.11762 1.00000 0.11095
0.27871 1.00000 0.10997
0.44243 1.00000 0.10900
0.60879 1.00000 0.10802
0.77778 1.00000 0.10704
0.94941 1.00000 0.10607
1.00000 1.00000 0.10509
0.00000 0.00000 0.29368
0.10458 0.00000 0.29138
0.24805 0.00000 0.28909
0.39416 0.00000 0.28680
0.54291 0.00000 0.28450
0.69429 0.00000 0.28221
0.84831 0.00000 0.27991
1.00000 0.00000 0.27762
0.00000 0.12500 0.28917
0.10649 0.12500 0.28688
0.25256 0.12500 0.28459
0.40126 0.12500 0.28229
0.55259 0.12500 0.28000
0.70656 0.12500 0.27770
0.86317 0.12500 0.27541
1.00000 0.12500 0.27311
0.00000 0.27500 0.28467
0.10841 0.27500 0.28238
0.25706 0.27500 0.28008
0.40835 0.27500 0.27779
0.56227 0.27500 0.27549
0.71883 0.27500 0.27320
0.87802 0.27500 0.27090
1.00000 0.27500 0.26861
0.00000 0.42500 0.28017
0.11033 0.42500 0.27787
0.26157 0.42500 0.27558
0.41544 0.42500 0.27328
0.57195 0.42500 0.27099
0.73109 0.42500 0.26869
0.89288 0.42500 0.26640
1.00000 0.42500 0.26411
0.00000 0.57500 0.27566
0.11224 0.57500 0.27337
0.26607 0.57500 0.27107
0.42253 0.57500 0.26878
0.58163 0.57500 0.26648
0.74336 0.57500 0.26419
0.90773 0.57500 0.26190
1.00000 0.57500 0.25960
0.00000 0.72500 0.27116
0.11416 0.72500 0.26886
0.27057 0.72500 0.26657
0.42962 0.72500 0.26427
0.59131 0.72500 0.26198
0.75563 0.72500 0.25969
0.92259 0.72500 0.25739
1.00000 0.72500 0.25510
0.00000 0.87500 0.26665
0.11608 0.87500 0.26436
0.27508 0.87500 0.26206
0.43671 0.87500 0.25977
0.60099 0.87500 0.25748
0.76790 0.87500 0.25518
0.93744 0.87500 0.25289
1.00000 0.87500 0.25059
0.00000 1.00000 0.26215
0.11800 1.00000 0.25985
0.27958 1.00000 0.25756
0.44381 1.00000 0.25527
0.61067 1.00000 0.25297
0.78016 1.00000 0.25068
0.95229 1.00000 0.24838
1.00000 1.00000 0.24609
0.00000 0.00000 0.46101
0.10495 0.00000 0.45740
0.24893 0.00000 0.45379
0.39554 0.00000 0.45017
0.54479 0.00000 0.44656
0.69668 0.00000 0.44295
0.85120 0.00000 0.43934
1.00000 0.00000 0.43572
0.00000 0.12500 0.45392
0.10687 0.12500 0.45031
0.25343 0.12500 0.44669
0.40263 0.12500 0.44308
0.55447 0.12500 0.43947
0.70894 0.12500 0.43586
0.86605 0.12500 0.43224
1.00000 0.12500 0.42863
0.00000 0.27500 0.44683
0.10878 0.27500 0.44321
0.25794 0.27500 0.43960
0.40972 0.27500 0.43599
0.56415 0.27500 0.43238
0.72121 0.27500 0.42877
0.88091 0.27500 0.42515
1.00000 0.27500 0.42154
0.00000 0.42500 0.43974
0.11070 0.42500 0.43612
0.26244 0.42500 0.43251
0.41682 0.42500 0.42890
0.57383 0.42500 0.42529
0.73348 0.42500 0.42167
0.89576 0.42500 0.41806
1.00000 0.42500 0.41445
0.00000 0.57500 0.43264
0.11262 0.57500 0.42903
0.26694 0.57500 0.42542
0.42391 0.57500 0.42181
0.58351 0.57500 0.41819
0.74574 0.57500 0.41458
0.91062 0.57500 0.41097
1.00000 0.57500 0.40736
0.00000 0.72500 0.42555
0.11453 0.72500 0.42194
0.27145 0.72500 0.41833
0.43100 0.72500 0.41471
0.59319 0.72500 0.41110
0.75801 0.72500 0.40749
0.92547 0.72500 0.40388
1.00000 0.72500 0.40026
0.00000 0.87500 0.41846
0.11645 0.87500 0.41485
0.27595 0.87500 0.41123
0.43809 0.87500 0.40762
0.60287 0.87500 0.40401
0.77028 0.87500 0.40040
0.94032 0.87500 0.39678
1.00000 0.87500 0.39317
0.00000 1.00000 0.41137
0.11837 1.00000 0.40776
0.28046 1.00000 0.40414
0.44518 1.00000 0.40053
0.61255 1.00000 0.39692
0.78254 1.00000 0.39331
0.95518 1.00000 0.38969
1.00000 1.00000 0.38608
0.00000 0.00000 0.62734
0.10532 0.00000 0.62241
0.24980 0.00000 0.61748
0.39692 0.00000 0.61255
0.54667 0.00000 0.60762
0.69906 0.00000 0.60269
0.85408 0.00000 0.59776
1.00000 0.00000 0.59282
0.00000 0.12500 0.61766
0.10724 0.12500 0.61273
0.25431 0.12500 0.60780
0.40401 0.12500 0.60287
0.55635 0.12500 0.59794
0.71132 0.12500 0.59301
0.86894 0.12500 0.58808
1.00000 0.12500 0.58315
0.00000 0.27500 0.60798
0.10916 0.27500 0.60305
0.25881 0.27500 0.59812
0.41110 0.27500 0.59319
0.56603 0.27500 0.58826
0.72359 0.27500 0.58333
0.88379 0.27500 0.57840
1.00000 0.27500 0.57347
0.00000 0.42500 0.59830
0.11107 0.42500 0.59337
0.26332 0.42500 0.58844
0.41819 0.42500 0.58351
0.57571 0.42500 0.57858
0.73586 0.42500 0.57365
0.89865 0.42500 0.56872
1.00000 0.42500 0.56379
0.00000 0.57500 0.58862
0.11299 0.57500 0.58369
0.26782 0.57500 0.57876
0.42529 0.57500 0.57383
0.58539 0.57500 0.56890
0.74813 0.57500 0.56397
0.91350 0.57500 0.55904
1.00000 0.57500 0.55411
0.00000 0.72500 0.57894
0.11491 0.72500 0.57401
0.27232 0.72500 0.56908
0.43238 0.72500 0.56415
0.59507 0.72500 0.55922
0.76039 0.72500 0.55429
0.92836 0.72500 0.54936
1.00000 0.72500 0.54443
0.00000 0.87500 0.56926
0.11682 0.87500 0.56433
0.27683 0.87500 0.55940
0.43947 0.87500 0.55447
0.60475 0.87500 0.54954
0.77266 0.87500 0.54461
0.94321 0.87500 0.53968
1.00000 0.87500 0.53475
0.00000 1.00000 0.55958
0.11874 1.00000 0.55465
0.28133 1.00000 0.54972
0.44656 1.00000 0.54479
0.61443 1.00000 0.53986
0.78493 1.00000 0.53493
0.95806 1.00000 0.53000
1.00000 1.00000 0.52507
0.00000 0.00000 0.79266
0.10569 0.00000 0.78641
0.25068 0.00000 0.78016
0.39830 0.00000 0.77391
0.54855 0.00000 0.76767
0.70144 0.00000 0.76142
0.85697 0.00000 0.75517
1.00000 0.00000 0.74892
0.00000 0.12500 0.78039
0.10761 0.12500 0.77414
0.25518 0.12500 0.76790
0.40539 0.12500 0.76165
0.55823 0.12500 0.75540
0.71371 0.12500 0.74915
0.87182 0.12500 0.74290
1.00000 0.12500 0.73665
0.00000 0.27500 0.76813
0.10953 0.27500 0.76188
0.25969 0.27500 0.75563
0.41248 0.27500 0.74938
0.56791 0.27500 0.74313
0.72597 0.27500 0.73688
0.88668 0.27500 0.73063
1.00000 0.27500 0.72439
0.00000 0.42500 0.75586
0.11144 0.42500 0.74961
0.26419 0.42500 0.74336
0.41957 0.42500 0.73711
0.57759 0.42500 0.73086
0.73824 0.42500 0.72462
0.90153 0.42500 0.71837
1.00000 0.42500 0.71212
0.00000 0.57500 0.74359
0.11336 0.57500 0.73734
0.26869 0.57500 0.73109
0.42666 0.57500 0.72485
0.58727 0.57500 0.71860
0.75051 0.57500 0.71235
0.91639 0.57500 0.70610
1.00000 0.57500 0.69985
0.00000 0.72500 0.73132
0.11528 0.72500 0.72508
0.27320 0.72500 0.71883
0.43375 0.72500 0.71258
0.59695 0.72500 0.70633
0.76278 0.72500 0.70008
0.93124 0.72500 0.69383
1.00000 0.72500 0.68758
0.00000 0.87500 0.71906
0.11720 0.87500 0.71281
0.27770 0.87500 0.70656
0.44085 0.87500 0.70031
0.60663 0.87500 0.69406
0.77504 0.87500 0.68781
0.94609 0.87500 0.68157
1.00000 0.87500 0.67532
0.00000 1.00000 0.70679
0.11911 1.00000 0.70054
0.28221 1.00000 0.69429
0.44794 1.00000 0.68804
0.61631 1.00000 0.68180
0.78731 1.00000 0.67555
0.96095 1.00000 0.66930
1.00000 1.00000 0.66305
0.00000 0.00000 0.95698
0.10607 0.00000 0.94941
0.25155 0.00000 0.94184
0.39967 0.00000 0.93428
0.55043 0.00000 0.92671
0.70382 0.00000 0.91914
0.85985 0.00000 0.91158
1.00000 0.00000 0.90401
0.00000 0.12500 0.94212
0.10798 0.12500 0.93456
0.25606 0.12500 0.92699
0.40676 0.12500 0.91942
0.56011 0.12500 0.91186
0.71609 0.12500 0.90429
0.87471 0.12500 0.89672
1.00000 0.12500 0.88916
0.00000 0.27500 0.92727
0.10990 0.27500 0.91970
0.26056 0.27500 0.91213
0.41386 0.27500 0.90457
0.56979 0.27500 0.89700
0.72836 0.27500 0.88943
0.88956 0.27500 0.88187
1.00000 0.27500 0.87430
0.00000 0.42500 0.91241
0.11182 0.42500 0.90485
0.26506 0.42500 0.89728
0.42095 0.42500 0.88971
0.57947 0.42500 0.88215
0.74062 0.42500 0.87458
0.90442 0.42500 0.86701
1.00000 0.42500 0.85945
0.00000 0.57500 0.89756
0.11373 0.57500 0.88999
0.26957 0.57500 0.88242
0.42804 0.57500 0.87486
0.58915 0.57500 0.86729
0.75289 0.57500 0.85972
0.91927 0.57500 0.85216
1.00000 0.57500 0.84459
0.00000 0.72500 0.88270
0.11565 0.72500 0.87514
0.27407 0.72500 0.86757
0.43513 0.72500 0.86000
0.59883 0.72500 0.85244
0.76516 0.72500 0.84487
0.93412 0.72500 0.83730
1.00000 0.72500 0.82974
0.00000 0.87500 0.86785
0.11757 0.87500 0.86028
0.27858 0.87500 0.85272
0.44222 0.87500 0.84515
0.60851 0.87500 0.83758
0.77742 0.87500 0.83002
0.94898 0.87500 0.82245
1.00000 0.87500 0.81488
0.00000 1.00000 0.85299
0.11948 1.00000 0.84543
0.28308 1.00000 0.83786
0.44932 1.00000 0.83029
0.61819 1.00000 0.82273
0.78969 1.00000 0.81516
0.96383 1.00000 0.80759
1.00000 1.00000 0.80003
0.00000 0.00000 1.00000
0.10644 0.00000 1.00000
0.25243 0.00000 1.00000
0.40105 0.00000 1.00000
0.55231 0.00000 1.00000
0.70620 0.00000 1.00000
0.86274 0.00000 1.00000
1.00000 0.00000 1.00000
0.00000 0.12500 1.00000
0.10836 0.12500 1.00000
0.25693 0.12500 1.00000
0.40814 0.12500 1.00000
0.56199 0.12500 1.00000
0.71847 0.12500 1.00000
0.87759 0.12500 1.00000
1.00000 0.12500 1.00000
0.00000 0.27500 1.00000
0.11027 0.27500 1.00000
0.26144 0.27500 1.00000
0.41523 0.27500 1.00000
0.57167 0.27500 1.00000
0.73074 0.27500 1.00000
0.89245 0.27500 1.00000
1.00000 0.27500 1.00000
0.00000 0.42500 1.00000
0.11219 0.42500 1.00000
0.26594 0.42500 1.00000
0.42233 0.42500 1.00000
0.58135 0.42500 1.00000
0.74301 0.42500 1.00000
0.90730 0.42500 1.00000
1.00000 0.42500 1.00000
0.00000 0.57500 1.00000
0.11411 0.57500 1.00000
0.27044 0.57500 1.00000
0.42942 0.57500 1.00000
0.59103 0.57500 1.00000
0.75527 0.57500 1.00000
0.92216 0.57500 0.99721
1.00000 0.57500 0.98833
0.00000 0.72500 1.00000
0.11602 0.72500 1.00000
0.27495 0.72500 1.00000
0.43651 0.72500 1.00000
0.60071 0.72500 0.99754
0.76754 0.72500 0.98865
0.93701 0.72500 0.97977
1.00000 0.72500 0.97088
0.00000 0.87500 1.00000
0.11794 0.87500 1.00000
0.27945 0.87500 0.99787
0.44360 0.87500 0.98898
0.61039 0.87500 0.98010
0.77981 0.87500 0.97121
0.95186 0.87500 0.96233
1.00000 0.87500 0.95344
0.00000 1.00000 0.99819
0.11986 1.00000 0.98931
0.28396 1.00000 0.98042
0.45069 1.00000 0.97154
0.62007 1.00000 0.96265
0.79207 1.00000 0.95377
0.96672 1.00000 0.94488
1.00000 1.00000 0.93600
